site/assets/img/icon-empresa.svg

<?xml version="1.0" encoding="UTF-8" standalone="no"?>
<svg width="65px" height="66px" viewBox="0 0 65 66" version="1.1" xmlns="http://www.w3.org/2000/svg" xmlns:xlink="http://www.w3.org/1999/xlink" xmlns:sketch="http://www.bohemiancoding.com/sketch/ns">
    <!-- Generator: Sketch 3.4.4 (17248) - http://www.bohemiancoding.com/sketch -->
    <title>icon-empresa</title>
    <desc>Created with Sketch.</desc>
    <defs></defs>
    <g id="Page-1" stroke="none" stroke-width="1" fill="none" fill-rule="evenodd" sketch:type="MSPage">
        <g id="Interna---Planos-Copy" sketch:type="MSArtboardGroup" transform="translate(-950.000000, -2599.000000)" fill="#9898A6">
            <g id="Page-1" sketch:type="MSLayerGroup" transform="translate(950.000000, 2599.000000)">
                <path d="M64.972485,43.2249851 C64.8911097,44.0146876 64.2401081,44.6464496 63.4263561,44.6464496 L63.3449809,44.6464496 C62.5312289,44.5674794 61.8802272,43.9357174 61.8802272,43.0670446 C61.9616025,41.9614611 61.9616025,38.4867702 60.0899728,37.8550082 C49.9994477,34.8541388 50.8131997,29.6421024 50.9759501,28.9313701 L50.9759501,28.8523999 C51.1387005,28.2206379 51.7897021,27.7468164 52.5220789,27.7468164 C53.335831,27.7468164 55.2888358,27.6678462 56.9163399,27.0360842 C55.8584623,25.8515304 54.963335,23.798304 55.2888358,20.2446428 C55.6957118,16.3751006 55.1260854,13.3742312 53.8240822,12.1107072 C53.1730806,11.4789452 52.4407037,11.2420344 51.3828261,11.3999749 C50.8945749,11.4789452 50.4063237,11.2420344 50.0808229,10.8471832 C49.9180725,10.6892427 48.534694,9.26777823 45.5238115,10.3733617 L45.4424363,10.3733617 C44.1404331,10.8471832 41.2109258,11.9527667 41.3736762,18.9021486 C41.4550514,22.7716907 40.885425,25.4566792 39.5020465,27.1150544 C40.3971737,27.5099057 41.8619274,27.9047569 43.9776827,27.8257867 C44.7914347,27.8257867 45.5238115,28.4575486 45.5238115,29.3262214 C45.5238115,30.1159239 44.8728099,30.8266561 43.9776827,30.8266561 L43.8149323,30.8266561 C37.7931673,30.8266561 35.7587872,28.2206379 35.5960368,27.9047569 C35.270536,27.4309354 35.270536,26.8781437 35.5146616,26.4043222 C35.7587872,25.9305007 36.1656632,25.6935899 36.7352896,25.6146197 C36.89804,25.5356494 38.4441689,24.6669767 38.3627937,18.9811188 C38.1186681,9.89954022 42.8384298,8.16219475 44.3845587,7.60940301 L44.4659339,7.60940301 C48.2905684,6.18793854 50.7318245,7.53043276 51.8710773,8.3991055 C53.4985814,8.3991055 54.963335,8.95189724 56.0212127,10.0574807 C58.6252191,12.5845287 58.7065943,17.1648031 58.3810935,20.639494 C57.9742175,24.8249172 59.764472,25.6935899 60.0085976,25.8515304 C60.578224,25.9305007 60.9037248,26.3253519 61.0664752,26.8781437 C61.2292256,27.4309354 61.0664752,27.9837271 60.6595992,28.2996081 C58.8693448,30.1159239 56.0212127,30.6687156 54.149583,30.8266561 C54.7192094,32.0901801 56.5094639,33.8275255 60.9851,35.1700198 C63.8332321,35.9597223 65.2166106,38.8026512 64.972485,43.2249851 Z M23.7966324,61.940934 L21.7622523,60.2035886 L22.82013,37.3022165 C23.1456308,37.3811867 23.5525068,37.3811867 23.9593828,37.3811867 C24.2848836,37.3811867 24.5290092,37.3811867 24.85451,37.3022165 L25.9123877,60.1246183 L23.7966324,61.940934 Z M27.6212669,30.8266561 C26.8075149,30.8266561 26.0751381,31.4584181 26.0751381,32.3270908 C26.0751381,32.9588528 25.8310125,33.5116445 25.3427613,33.9064958 C25.2613861,33.985466 25.1800108,34.0644363 25.0986356,34.1434065 C24.7731348,34.3803173 24.3662588,34.5382578 23.8780076,34.5382578 C22.6573796,34.5382578 21.6808771,33.5906148 21.6808771,32.4060611 C21.6808771,31.6163586 21.0298755,30.9056263 20.1347483,30.9056263 C19.2396211,30.9056263 18.5886194,31.5373883 18.5886194,32.4060611 C18.5886194,33.5906148 18.9954954,34.6961983 19.7278723,35.564871 L18.5886194,60.8353506 C18.5886194,61.3091721 18.7513698,61.7040233 19.0768706,62.0199043 L22.6573796,65.1787142 C22.9828804,65.415625 23.3083812,65.5735655 23.7152572,65.5735655 C24.1221332,65.5735655 24.447634,65.415625 24.7731348,65.1787142 L28.435019,62.0199043 C28.7605198,61.7040233 28.9232702,61.3091721 28.9232702,60.8353506 L27.7840173,35.880752 C28.6791446,35.0120793 29.1673958,33.7485553 29.1673958,32.4850313 C29.1673958,31.4584181 28.435019,30.8266561 27.6212669,30.8266561 L27.6212669,30.8266561 Z M17.205241,30.4318049 C17.6934922,31.0635668 17.5307418,32.0112098 16.798365,32.4850313 C16.6356146,32.6429718 11.9158528,35.8017818 6.13821343,37.2232462 C3.12733093,37.9339785 2.88320532,41.6455802 3.04595572,43.6988066 L3.04595572,43.8567471 C3.04595572,45.0413008 3.12733093,47.0945273 3.45283174,47.8052595 C3.77833255,48.594962 3.37145654,49.4636348 2.55770451,49.7005455 C2.3949541,49.7795158 2.1508285,49.7795158 1.98807809,49.7795158 C1.41845167,49.7795158 0.76745005,49.4636348 0.604699645,48.8318728 C0.0350732265,47.4104083 0.0350732265,44.4885091 0.0350732265,43.7777769 C-0.290427584,38.6447107 1.66257728,35.1700198 5.4058366,34.301347 C10.6952248,33.0378231 15.0081105,30.0369536 15.0894857,30.0369536 C15.7404873,29.5631321 16.7169898,29.7210726 17.205241,30.4318049 L17.205241,30.4318049 Z M47.720942,43.7777769 C47.720942,44.4885091 47.720942,47.3314381 47.1513156,48.8318728 C46.90719,49.3846645 46.3375635,49.7795158 45.7679371,49.7795158 C45.6051867,49.7795158 45.3610611,49.7795158 45.1983107,49.7005455 C44.3845587,49.3846645 44.0590579,48.5159918 44.3031835,47.8052595 C44.6286843,47.0945273 44.7100595,45.0413008 44.6286843,43.8567471 L44.6286843,43.6988066 C44.7914347,41.5666099 44.6286843,37.9339785 41.5364266,37.2232462 C35.7587872,35.8017818 31.0390254,32.6429718 30.876275,32.4850313 C30.2252734,32.0112098 30.062523,31.0635668 30.469399,30.4318049 C30.9576502,29.8000429 31.9341527,29.5631321 32.5851543,30.0369536 C32.6665295,30.0369536 36.9794152,33.0378231 42.2688034,34.301347 C46.0934379,35.24899 48.0464428,38.723681 47.720942,43.7777769 L47.720942,43.7777769 Z M14.8453601,12.5845287 L14.8453601,12.5055584 C15.2522361,3.66089058 22.3318788,3.42397984 23.7152572,3.50295008 L23.7966324,3.50295008 C25.1800108,3.42397984 32.2596535,3.66089058 32.6665295,12.5055584 L32.6665295,12.5845287 C32.6665295,12.6634989 33.4802815,20.4025833 29.7370222,24.430066 C28.2722686,26.0094709 26.3192637,26.7991734 23.7152572,26.8781437 L23.633882,26.8781437 L23.5525068,26.8781437 C20.9485003,26.8781437 18.9954954,26.0884412 17.5307418,24.430066 C14.0316081,20.4025833 14.8453601,12.6634989 14.8453601,12.5845287 L14.8453601,12.5845287 Z M23.633882,29.8000429 L23.7152572,29.8000429 L23.7966324,29.8000429 L23.8780076,29.8000429 L23.9593828,29.8000429 C27.3771413,29.7210726 30.062523,28.6154891 32.0969031,26.4043222 C36.5725392,21.5081668 35.8401624,13.1373204 35.7587872,12.3476179 C35.270536,2.7132476 28.0281429,0.423110389 23.7966324,0.581050886 C19.4837467,0.423110389 12.2413536,2.79221785 11.8344776,12.3476179 C11.7531024,13.1373204 11.0207256,21.5081668 15.4963617,26.4043222 C17.4493666,28.6154891 20.2161235,29.7210726 23.633882,29.8000429 L23.633882,29.8000429 Z" id="icon-empresa" sketch:type="MSShapeGroup"></path>
            </g>
        </g>
    </g>
</svg>

<svg width="65" height="66" xmlns="http://www.w3.org/2000/svg"><path d="M64.972 43.225c-.08.79-.732 1.421-1.546 1.421h-.081c-.814-.079-1.465-.71-1.465-1.579.082-1.106.082-4.58-1.79-5.212-10.09-3-9.277-8.213-9.114-8.924v-.079c.163-.631.814-1.105 1.546-1.105.814 0 2.767-.08 4.394-.71-1.058-1.185-1.953-3.239-1.627-6.792.407-3.87-.163-6.87-1.465-8.134-.65-.632-1.383-.869-2.441-.711-.488.079-.977-.158-1.302-.553-.163-.158-1.546-1.58-4.557-.474h-.082c-1.302.474-4.231 1.58-4.068 8.53.081 3.869-.489 6.554-1.872 8.212.895.395 2.36.79 4.476.71.813 0 1.546.633 1.546 1.501 0 .79-.651 1.5-1.546 1.5h-.163c-6.022 0-8.056-2.605-8.219-2.921-.325-.474-.325-1.027-.081-1.5.244-.474.65-.711 1.22-.79.163-.08 1.71-.948 1.628-6.634C38.119 9.9 42.838 8.162 44.385 7.61h.08c3.826-1.421 6.267-.079 7.406.79 1.628 0 3.092.553 4.15 1.658 2.604 2.528 2.686 7.108 2.36 10.582-.407 4.186 1.383 5.055 1.628 5.213.57.079.895.473 1.057 1.026.163.553 0 1.106-.406 1.422-1.79 1.816-4.639 2.369-6.51 2.527.57 1.263 2.36 3 6.835 4.343 2.848.79 4.232 3.633 3.987 8.055zM23.797 61.941l-2.035-1.737 1.058-22.902c.326.08.733.08 1.14.08.325 0 .569 0 .895-.08l1.057 22.823-2.115 1.816zm3.824-31.114c-.813 0-1.546.631-1.546 1.5 0 .632-.244 1.185-.732 1.58l-.244.236a2.039 2.039 0 01-1.221.395c-1.22 0-2.197-.947-2.197-2.132 0-.79-.651-1.5-1.546-1.5s-1.546.631-1.546 1.5a4.87 4.87 0 001.139 3.159l-1.14 25.27c0 .474.163.869.489 1.185l3.58 3.159c.326.237.651.395 1.058.395.407 0 .733-.158 1.058-.395l3.662-3.16c.326-.315.488-.71.488-1.184l-1.139-24.954c.895-.869 1.383-2.132 1.383-3.396 0-1.027-.732-1.658-1.546-1.658zm-10.416-.395c.488.632.326 1.58-.407 2.053-.162.158-4.882 3.317-10.66 4.738-3.01.711-3.255 4.423-3.092 6.476v.158c0 1.184.081 3.238.407 3.948.325.79-.082 1.659-.895 1.896-.163.079-.407.079-.57.079-.57 0-1.22-.316-1.383-.948-.57-1.422-.57-4.343-.57-5.054-.325-5.133 1.628-8.608 5.37-9.477 5.29-1.263 9.603-4.264 9.684-4.264.651-.474 1.628-.316 2.116.395zm30.516 13.346c0 .71 0 3.553-.57 5.054-.244.553-.813.948-1.383.948-.163 0-.407 0-.57-.08a1.511 1.511 0 01-.895-1.895c.326-.71.407-2.764.326-3.948v-.158c.162-2.132 0-5.765-3.093-6.476-5.777-1.421-10.497-4.58-10.66-4.738-.65-.474-.813-1.421-.407-2.053.489-.632 1.465-.869 2.116-.395.082 0 4.394 3 9.684 4.264 3.824.948 5.777 4.423 5.452 9.477zM14.845 12.585v-.08c.407-8.844 7.487-9.081 8.87-9.002h.082c1.383-.079 8.463.158 8.87 9.003v.079c0 .078.813 7.818-2.93 11.845-1.465 1.58-3.418 2.37-6.022 2.448h-.162c-2.604 0-4.558-.79-6.022-2.448-3.5-4.027-2.686-11.767-2.686-11.845zM23.634 29.8h.325c3.418-.079 6.104-1.185 8.138-3.396 4.476-4.896 3.743-13.267 3.662-14.056C35.27 2.713 28.029.423 23.797.58 19.484.423 12.24 2.792 11.834 12.348c-.08.79-.813 9.16 3.662 14.056 1.953 2.211 4.72 3.317 8.138 3.396z" fill="#9898A6" fill-rule="evenodd"/></svg>
